packages/swarm-icons/src/icons/line/Plus Circled.svg

<svg xmlns="http://www.w3.org/2000/svg" width="24" height="24" viewBox="0 0 24 24">
  <path fill="#757575" d="M12,21 C16.9705627,21 21,16.9705627 21,12 C21,7.02943725 16.9705627,3 12,3 C7.02943725,3 3,7.02943725 3,12 C3,16.9705627 7.02943725,21 12,21 Z M12,22 C6.4771525,22 2,17.5228475 2,12 C2,6.4771525 6.4771525,2 12,2 C17.5228475,2 22,6.4771525 22,12 C22,17.5228475 17.5228475,22 12,22 Z M11.5,11.5 L8.5,11.5 C8.22385763,11.5 8,11.7238576 8,12 C8,12.2761424 8.22385763,12.5 8.5,12.5 L11.5,12.5 L11.5,15.5 C11.5,15.7761424 11.7238576,16 12,16 C12.2761424,16 12.5,15.7761424 12.5,15.5 L12.5,12.5 L15.5,12.5 C15.7761424,12.5 16,12.2761424 16,12 C16,11.7238576 15.7761424,11.5 15.5,11.5 L12.5,11.5 L12.5,8.5 C12.5,8.22385763 12.2761424,8 12,8 C11.7238576,8 11.5,8.22385763 11.5,8.5 L11.5,11.5 Z"/>
</svg>

<svg xmlns="http://www.w3.org/2000/svg" width="24" height="24"><path fill="#757575" d="M12 21a9 9 0 100-18 9 9 0 000 18zm0 1C6.477 22 2 17.523 2 12S6.477 2 12 2s10 4.477 10 10-4.477 10-10 10zm-.5-10.5h-3a.5.5 0 100 1h3v3a.5.5 0 101 0v-3h3a.5.5 0 100-1h-3v-3a.5.5 0 10-1 0v3z"/></svg>
